X:184
T:Drummer, The
R:Reel
B:The Athole Collection
M:C|
L:1/8
K:A Minor
B|ABcA E2E^F|GABc dBGB|cABG E2Eg|edcB A2A:|
B|c2ce d2de|c2ce dBGB|c2ce d2dg|edcB A2AB|c2ce d2de|c2ce dBGB|
ccce dddg|edcB A2A||

